X:1
T:Title
%%score [ 1 2 3 ]
L:1/8
Q:1/4=70
M:4/4
K:Eb
V:1 treble nm="Soprano"
V:2 treble nm="Alto"
V:3 bass nm="Bass"
V:1
"^Andante  (-76)" z8 |!p! B4 B2 B2 | c4 B4 | A4 A2 A2 | A4 G4 | F4 c2 c2 | B4 G4 | E4 A2 G2 | %8
w: |A- ve Ma-|ri- a|gra- ti- a|ple- na|Do- mi- nus|te- cum,|Do- mi- nus|
 G4 F4 | z2!mf! G4 F2 | G3 A B4 | c2 (cB) (AG) c2 |!<(! B3 A B2 d2!<)! | e2 d2 (c4 | B2 A2) G4 | %15
w: te- cum.|Be- ne|di- cta tu|tu in- * mu- * li-|e- ri- bus et|be- ne- di-|* * ctus|
 F2 AG F2 c2 |!>(! B3 A G4- | G2 F2!>)! E4 |!p! !>!F2 G2 A4 | !fermata!G8 || z8 |!p! B4 B2 B2 | %22
w: fru- ctus- * ven- tris-|tu- i Je-|* * sus,|Je- * *|sus.||San- cta Ma-|
 c4 B4 | A4 A4 | A4 G4 | F4 c2 c2 | B4 G4 | (E4 A2) G2 | G2 G2 F4 | z2!mf! G2 G2 F2 | B4 B4 | %31
w: ri- a|ma- ter-|De- i.|o- ra pro|no- bis|pec- * ca-|to- ri- bus|nunc et in|ho- ra|
 z2!>(! E2 E2 D2 | G4!>)! G4 |!mf! c4 c2 c2 | B4 B4 | E2 F2 (A4- |!>(! A2 G2) F4!>)! | E8- | E8 | %39
w: nunc et in|ho- ra|nunc et in|ho- ra|mor- tis no-|* * strae.|A-||
 !fermata!E8 |] %40
w: men.|
V:2
 z4!p! G4 | F2 F2 F4 | E4 D4 | E2 E2 B,4 | B,4 E4 | E4 E4 | (D2 F4) E2 | (B,2 C2) D2 D2 | B,8 | %9
w: A-|ve Ma- ri-|a gra-|ti- a ple-|na Do-|mi- nus|te- * cum,|Do- * mi- nus|te-|
 E4 z2!mf! F2- | F2 E2 F3 G | A2 F2 FG A2- | A2 G2 F2 B2 | B6 =A2 | (B2 F4) =E2 | F2 FE D2 EF | %16
w: cum. Be-|* ne dic- cta|tu in mu- li- e-|* ri- bus et|be- ne-|di- * ctus|fru- ctus- * ven tris _|
!>(! (G2 F4) E2 | B,4!>)! C2 !>!E2- |!p! E2 D2 C4 | !fermata!B,8 || z4!p! G4 | F2 F2 F4 | E4 D4 | %23
w: tu _ _|_ sus, Je-||sus.|San-|cta Ma- ri-|a ma-|
 E4 B,4 | B,4 E4 | E4 E4 | D2 F4 E2 | (B,2 C2 D2) D2 | B,4 B,4 | E4!mf! C4 | E2 D2 E4 | %31
w: ter De-|i, o-|ra pro|no- * bis|pec- * * ca|to- ri|bus nunc|et in ho-|
 E4!>(! A,4 | C2 =B,2 C2 C2!>)! |!mf! C4 F2 F2 | G4 D4 | B,2 B,2 (C3 D | E6 D2) | E4!>(! (B,4 | %38
w: ra, nunc|et in ho- ra|nunc et in|ho- ra|mor- tis no- *||stae. A-|
 C2 B,2 A,2!>)! C2) | !fermata!B,8 |] %40
w: |men.|
V:3
!p! E,4 E,2 E,2 | E,4 D,4 | C,4 G,2 G,2 | C,4 D,4 | E,2 F,2 G,2 G,,2 | (A,,2 B,,2 C,4 | D,4) C,4 | %7
w: A- ve Ma-|ri- a|Gra ti- a|ple- na|Do- * mi- nus|Te- * *|* cum,|
 G,4 F,2 F,2 | (F,2 E,4 D,2 | E,4 D,4) | z4!mf! D,4 | C,2 D,3 D, C,2 | E,4 D,2 A,2 | %13
w: Do- mi- nus|te- * *|* cum.|Be-|ne- dic- ta tu|in mu- li-|
 (G,2 D,2 F,2) F,2 | G,2 A,B, C3 B, | A,2 B,2!>(! (B,2 A,2 | E,2 F,2 C,4 | D,4!>)! C,4) | %18
w: e- * * ri-|bus, et _ be- ne-|dic- tus Je- *||* sus,|
!p! !>!B,,2 B,2 A,4 | !fermata!E,8 ||!p! E,4 E,2 E,2 | E,4 D,4 | C,4 G,4 | C,4 D,4 | %24
w: Je- * *|sus.|San- cta Ma-|ri- a|ma- ter|De- i,|
 E,2 F,2 G,2 G,,2 | (A,,2 B,,2 C,4 | D,4) C,4 | (G,4 F,2) F,2 | (F,2 E,4) D,2 | E,4!mf! A,4 | %30
w: o- * ra pro-|no- * *|* bis|pec- * ca-|to- * ri|bus nunc|
 A,2 A,2 G,4 | C,4!>(! F,4 | F,2 F,2 E,2 E,2!>)! |!mf! A,4 A,2 A,2 | E,4 (B,2 A,2) | G,2 F,2 A,4 | %36
w: et in ho-|ra, nunc|et in ho- ra|nunc et in|ho- ra _|mor- tis no-|
 E,4!>(! (B,3 A, | G,2 F,2 G,4 | A,8)!>)! | !fermata!E,8 |] %40
w: strae. A- *|||men.|

